X:1010
T:Scale Navigation Complete
O:Kevin Fraser
Z:Kevin Fraser
Q:1/4=90
K:HP
M:4/4
L:1/4
R:March
V:gstem=up stem=down
%%MIDI gracedivider 4
%%MIDI gchord
%%MIDI beatstring
%%barsperstaff 4
[| G  A  G  B  |  G  c  G  d  |  G  e  G  f  |  G  g   G  a  |  a  G  g   G  |  f   G  e  G |  d  G  c  G  |  B  G   A  G  | 
w: G  A  G  B  |  G  c  G  d  |  G  e  G  f  |  G  g   G  a  |  a  G  g   G  |  f   G  e  G |  d  G  c  G  |  B  G   A  G  |
w: em en em o  |  em o  em a  |  em e  em ve |  em di  em I  |  I  em di  em |  ve  em e  em|  a  em o  em | o  em  en em | 
w: em en em oh |  em aw em ah |  em ay em vay|  em dee em ee |  ee em dee em |  vay em ay em|  ay em aw em |  oh em  en em |
|| A  G  A  B  |  A  c  A  d  |  A  e  A  f  |  A  g   A  a  |  a  A  g   A  |  f   A  e  A |  d  A  c  A  |  B  A   G  A  | 
w: A  G  A  B  |  A  c  A  d  |  A  e  A  f  |  A  g   A  a  |  a  A  g   A  |  f   A  e  A |  d  A  c  A  |  B  A   G  A  |
w: en em en o |  en o  en a  |  en e  en ve |  en di  en I  |  I  en di  en |  ve  en e  en|  a  en o  en |  o en  em en | 
|| B  G  B  A  |  B  c  B  d  |  B  e  B  f  |  B  g   B  a  |  a  B  g   B  |  f   B  e  B |  d  B  c  B  |  A  B   G  B  | 
w: B  G  B  A  |  B  c  B  d  |  B  e  B  f  |  B  g   B  a  |  a  B  g   B  |  f   B  e  B |  d  B  c  B  |  A  B   G  B  |
w: o em o en |  o o  o a  |  o e  o ve |  o di  o I  |  I  o di  o |  ve  o e  o|  a  o o  o |  en o  em o | 
|| c  G  c  A  |  c  B  c  d  |  c  e  c  f  |  c  g   c  a  |  a  c  g   c  |  f   c  e  c |  d  c  c  c  |  B  c   G  c  | 
w: c  G  c  A  |  c  B  c  d  |  c  e  c  f  |  c  g   c  a  |  a  c  g   c  |  f   c  e  c |  d  c  c  c  |  B  c   G  c 
w: o em o en  |  o o  o a  |  o e  o ve |  o di  o I  |  I  o di  o |  ve  o e  o|  a  o o  o |  o  o  em o | 
|| d  G  d  A  |  d  B  d  c  |  d  e  d  f  |  d  g   d  a  |  a  d  g   d  |  f   d  e  d |    c  d   B  d | A d  G  d  | 
w: d  G  d  A  |  d  B  d  c  |  d  e  d  f  |  d  g   d  a  |  a  d  g   d  |  f   d  e  d |    c  d   B  d | A d  G  d  
w: a em a en  |  a o  a o  |  a e  a ve |  a di  a I  |  I  a di  a |  ve  a e  a|   o  a   o  a | en a em a :| 
|| e  G  e  B  |  e  c  e  d  |  e  A  e  f  |  e  g   e  a  |  a  e  g   e  |  f   e  A  e |  d  e  c  e  |  B  e   G  e  | 
w: A  G  A  B  |  A  c  A  d  |  A  A  A  f  |  A  g   A  a  |  a  A  g   A  |  f   A  A  A |  d  A  c  A  |  B  A   G  A  :|
w: e em e o  |  e o  e a  |  e en  e ve |  e di  e I  |  I  e di  e |  ve  e e  e|  a  en o  e |  o  e  em e :| 
|| f  G  f  B  |  f  c  f  d  |  f  e  f  f  |  f  g   f  a  |  a  f  g   f  |  f   f  e  f |  d  f  c  f  |  B  f   G  f  | 
w: A  G  A  B  |  A  c  A  d  |  A  e  A  f  |  A  g   A  a  |  a  A  g   A  |  f   A  e  A |  d  A  c  A  |  B  A   G  A  :|
w: en em en o  |  en o  en a  |  en e  en ve |  en di  en I  |  I  en di  en |  ve  en e  en|  a  en o  en |  o  en  em en :| 
|| g  G  g  B  |  g  c  g  d  |  g  e  g  f  |  g  A   g  a  |  a  g  A   g  |  f   g  e  g |  d  g  c  g  |  B  g   G  g  | 
w: g  G  g  B  |  g  c  g  d  |  g  e  g  f  |  g  A   g  a  |  a  g  A   g  |  f   g  e  g |  d  g  c  g  |  B  g   G  g 
w: di em di o  |  di o  di a  |  di e  di ve |  di en  di I  |  I  di en  di |  ve  di e  di|  a  di o  di |  o  di  em di :| 
|| a  G  a  B  |  a  c  a  d  |  a  e  a  f  |  a  g   a  A  |  A  a  g   a  |  f   a  e  a |  d  a  c  a  |  B  a   G  a  |] 
w: a  G  a  B  |  a  c  a  d  |  a  e  a  f  |  a  g   a  A  |  A  a  g   a  |  f   a  e  a |  d  a  c  a  |  B  a   G  a 
w: I em I o  |  I o  I a  |  I e  I ve |  I di  I en  |  en  I di  I |  ve  I e  I|  a  I o  I |  o  I  em I :| 



